public/assets/socials/twitter-small.svg

<svg fill="none" height="34" viewBox="0 0 34 34" width="34" xmlns="http://www.w3.org/2000/svg" xmlns:xlink="http://www.w3.org/1999/xlink"><clipPath id="a"><path d="m0 0h34v34h-34z"/></clipPath><g clip-path="url(#a)"><path d="m34 6.45578c-1.2509.55533-2.5953.92933-4.0063 1.09791 1.4407-.86275 2.5471-2.22983 3.067-3.859-1.3472.799-2.8404 1.37984-4.4299 1.69292-1.2707-1.35575-3.0855-2.20292-5.0915-2.20292-4.5036 0-7.8129 4.20184-6.7957 8.56371-5.7956-.2904-10.93527-3.06704-14.37635-7.28729-1.8275 3.13508-.94775 7.23629 2.15758 9.31319-1.14183-.0369-2.2185-.3499-3.15775-.8727-.0765 3.2314 2.23975 6.2546 5.59442 6.9275-.98175.2663-2.057.3287-3.15067.119.88684 2.771 3.46234 4.7869 6.51667 4.8436-2.9325 2.2992-6.62717 3.3263-10.3275 2.89 3.08692 1.9791 6.75467 3.1337 10.693 3.1337 12.9512 0 20.2682-10.9381 19.8262-20.7485 1.3629-.98462 2.5458-2.21287 3.4808-3.61112z" fill="#767676"/></g></svg>

<svg width="34" height="34" viewBox="0 0 34 34" fill="none" xmlns="http://www.w3.org/2000/svg">
<g clip-path="url(#clip0)">
<path d="M34 6.45578C32.7491 7.01111 31.4047 7.38511 29.9937 7.55369C31.4344 6.69094 32.5408 5.32386 33.0607 3.69469C31.7135 4.49369 30.2203 5.07453 28.6308 5.38761C27.3601 4.03186 25.5453 3.18469 23.5393 3.18469C19.0357 3.18469 15.7264 7.38653 16.7436 11.7484C10.948 11.458 5.80833 8.68136 2.36725 4.46111C0.53975 7.59619 1.4195 11.6974 4.52483 13.7743C3.383 13.7374 2.30633 13.4244 1.36708 12.9016C1.29058 16.133 3.60683 19.1562 6.9615 19.8291C5.97975 20.0954 4.9045 20.1578 3.81083 19.9481C4.69767 22.7191 7.27317 24.735 10.3275 24.7917C7.395 27.0909 3.70033 28.118 0 27.6817C3.08692 29.6608 6.75467 30.8154 10.693 30.8154C23.6442 30.8154 30.9612 19.8773 30.5192 10.0669C31.8821 9.08228 33.065 7.85403 34 6.45578Z" fill="#767676"/>
</g>
<defs>
<clipPath id="clip0">
<rect width="34" height="34" fill="white"/>
</clipPath>
</defs>
</svg>
